X: 1
T: Boules Et Guirlandes
M: 3/4
L: 1/8
R: mazurka
K: Gmaj
G>d d>B d2|A>B c>d c>B|G>d d>B d2|A>B c>d c>B:|
G2 F>G B>c|B>G F>G A>F|G2 F>G A>G|1c>d c>B G>F:|2c>d c>B G2|
